img/work1.svg

<svg width="48" height="48" viewBox="0 0 48 48" fill="none" xmlns="http://www.w3.org/2000/svg">
<circle cx="24" cy="24" r="24" fill="#FEF6EE"/>
<g clip-path="url(#clip0_323_122)">
<path d="M17.25 23.3999C17.7038 23.3999 18.1145 23.2178 18.4181 22.9254L20.0832 23.7579C20.0748 23.8257 20.0625 23.8924 20.0625 23.9624C20.0625 24.8929 20.8195 25.6499 21.75 25.6499C22.6805 25.6499 23.4375 24.8929 23.4375 23.9624C23.4375 23.7027 23.3736 23.4595 23.2683 23.2395L25.5271 20.9807C25.7471 21.086 25.9903 21.1499 26.25 21.1499C27.1805 21.1499 27.9375 20.3929 27.9375 19.4624C27.9375 19.2872 27.9031 19.1215 27.8533 18.9626L29.8159 17.491C30.0836 17.6699 30.4046 17.7749 30.75 17.7749C31.6805 17.7749 32.4375 17.0179 32.4375 16.0874C32.4375 15.1569 31.6805 14.3999 30.75 14.3999C29.8195 14.3999 29.0625 15.1569 29.0625 16.0874C29.0625 16.2626 29.0969 16.4283 29.1467 16.5872L27.1841 18.0588C26.9164 17.8799 26.5954 17.7749 26.25 17.7749C25.3195 17.7749 24.5625 18.5319 24.5625 19.4624C24.5625 19.7221 24.6264 19.9653 24.7317 20.1853L22.4729 22.4441C22.2529 22.3388 22.0097 22.2749 21.75 22.2749C21.2962 22.2749 20.8854 22.457 20.5819 22.7494L18.9168 21.9169C18.9252 21.8491 18.9375 21.7824 18.9375 21.7124C18.9375 20.7819 18.1805 20.0249 17.25 20.0249C16.3195 20.0249 15.5625 20.7819 15.5625 21.7124C15.5625 22.6429 16.3195 23.3999 17.25 23.3999Z" fill="#F49C4E"/>
<path d="M33.0375 32.4749H32.4375V20.5874C32.4375 20.2766 32.1858 20.0249 31.875 20.0249H29.625C29.3142 20.0249 29.0625 20.2766 29.0625 20.5874V32.4749H27.9375V23.9624C27.9375 23.6516 27.6858 23.3999 27.375 23.3999H25.125C24.8142 23.3999 24.5625 23.6516 24.5625 23.9624V32.4749H23.4375V28.4624C23.4375 28.1516 23.1858 27.8999 22.875 27.8999H20.625C20.3142 27.8999 20.0625 28.1516 20.0625 28.4624V32.4749H18.9375V26.2124C18.9375 25.9016 18.6858 25.6499 18.375 25.6499H16.125C15.8142 25.6499 15.5625 25.9016 15.5625 26.2124V32.4749H14.9625C14.6517 32.4749 14.4 32.7266 14.4 33.0374C14.4 33.3482 14.6517 33.5999 14.9625 33.5999H33.0375C33.3483 33.5999 33.6 33.3482 33.6 33.0374C33.6 32.7266 33.3483 32.4749 33.0375 32.4749Z" fill="#F49C4E"/>
</g>
<defs>
<clipPath id="clip0_323_122">
<rect width="19.2" height="19.2" fill="white" transform="translate(14.4 14.3999)"/>
</clipPath>
</defs>
</svg>

<svg width="48" height="48" fill="none" xmlns="http://www.w3.org/2000/svg"><circle cx="24" cy="24" r="24" fill="#FEF6EE"/><g clip-path="url(#a)" fill="#F49C4E"><path d="M17.25 23.4a1.68 1.68 0 0 0 1.168-.475l1.665.833c-.008.068-.02.134-.02.204 0 .93.757 1.688 1.687 1.688a1.69 1.69 0 0 0 1.688-1.688c0-.26-.064-.503-.17-.723l2.26-2.258c.22.105.462.169.722.169a1.69 1.69 0 0 0 1.688-1.688c0-.175-.035-.34-.085-.5l1.963-1.471c.268.179.589.284.934.284a1.69 1.69 0 0 0 1.688-1.688A1.69 1.69 0 0 0 30.75 14.4a1.69 1.69 0 0 0-1.688 1.687c0 .176.035.341.085.5l-1.963 1.472a1.676 1.676 0 0 0-.934-.284 1.69 1.69 0 0 0-1.688 1.687c0 .26.064.503.17.723l-2.26 2.26a1.667 1.667 0 0 0-.722-.17c-.454 0-.865.182-1.168.474l-1.665-.832c.008-.068.02-.135.02-.205a1.69 1.69 0 0 0-1.687-1.687 1.69 1.69 0 0 0-1.688 1.687c0 .93.758 1.688 1.688 1.688Z"/><path d="M33.038 32.475h-.6V20.587a.562.562 0 0 0-.563-.562h-2.25a.562.562 0 0 0-.563.562v11.888h-1.125v-8.513a.562.562 0 0 0-.562-.562h-2.25a.562.562 0 0 0-.563.562v8.513h-1.125v-4.013a.562.562 0 0 0-.562-.562h-2.25a.562.562 0 0 0-.563.562v4.013h-1.125v-6.263a.562.562 0 0 0-.562-.562h-2.25a.562.562 0 0 0-.563.562v6.263h-.6a.562.562 0 1 0 0 1.125h18.076a.562.562 0 1 0 0-1.125Z"/></g><defs><clipPath id="a"><path fill="#fff" transform="translate(14.4 14.4)" d="M0 0h19.2v19.2H0z"/></clipPath></defs></svg>
